dist/files/careerPerk_4.svg

<svg width="142" height="142" viewBox="0 0 142 142" fill="none" xmlns="http://www.w3.org/2000/svg">
<g filter="url(#filter0_d_6248_2839)">
<circle cx="67" cy="68" r="59" fill="#152968"/>
</g>
<mask id="mask0_6248_2839" style="mask-type:luminance" maskUnits="userSpaceOnUse" x="24" y="25" width="87" height="85">
<path d="M24 25H110.952V110H24V25Z" fill="white"/>
</mask>
<g mask="url(#mask0_6248_2839)">
<path d="M83.3052 82.803L71.068 89.9318C70.7029 90.143 70.3352 90.3173 69.9586 90.4522C70.054 90.2257 70.1354 89.9865 70.2029 89.7372C70.8721 87.2396 69.3937 84.6339 66.8363 83.8043C66.7765 83.7852 66.7142 83.77 66.6531 83.7585C63.1618 83.1287 59.7037 81.8793 56.9249 80.8742C55.9541 80.523 55.0368 80.1909 54.253 79.9377C51.0023 78.883 48.0925 80.1718 45.675 81.5714L36.8464 86.6836L36.1453 85.4443C35.7242 84.7013 35.0384 84.1657 34.2127 83.9366C33.3857 83.7076 32.5218 83.8132 31.7787 84.2344L28.346 86.1772C26.8078 87.0475 26.2658 89.0056 27.1348 90.5438L37.2306 108.38C37.6505 109.124 38.3376 109.659 39.1633 109.888C39.4483 109.967 39.7384 110.007 40.0272 110.007C40.5718 110.007 41.1099 109.865 41.596 109.59L45.03 107.648C46.5669 106.777 47.1089 104.819 46.24 103.281L45.3531 101.715L47.0441 100.739L62.5918 104.905C63.4837 105.144 64.3718 105.263 65.2459 105.263C67.0144 105.263 68.7219 104.776 70.2843 103.814L92.4927 90.1392C94.6556 88.8071 95.349 85.4596 93.9457 83.1173C93.2675 81.9849 90.4964 78.6158 83.3052 82.803ZM43.6482 105.207L40.2155 107.151C40.0921 107.22 39.9725 107.204 39.9114 107.186C39.8516 107.169 39.7397 107.123 39.6697 107L29.5751 89.1621C29.4682 88.9738 29.5369 88.7244 29.7265 88.6175L33.1592 86.6734C33.2279 86.6352 33.2953 86.6238 33.3513 86.6238C33.3971 86.6238 33.4366 86.6314 33.4633 86.6378C33.5231 86.6556 33.6351 86.7014 33.705 86.8248L43.7996 104.663C43.9065 104.851 43.8378 105.1 43.6482 105.207ZM91.0231 87.7511L68.8148 101.427C67.1302 102.464 65.2802 102.722 63.3171 102.197L47.2095 97.88C46.8494 97.7833 46.4677 97.8342 46.1458 98.02L43.9727 99.2745L38.2269 89.1226L47.0797 83.9977C49.0569 82.8526 51.1906 81.8907 53.3891 82.6045C54.1271 82.8437 54.9821 83.1529 55.9719 83.5104C58.8232 84.541 62.3641 85.8222 66.0513 86.4991C67.1569 86.8973 67.7765 87.9635 67.4954 89.0107C67.1964 90.1252 66.363 90.6112 65.0169 90.4598C63.2331 90.0909 61.532 89.6061 59.7329 89.0921C58.8716 88.8465 57.9822 88.5921 57.0649 88.3465C56.318 88.1468 55.5495 88.5895 55.3485 89.3376C55.1487 90.0858 55.5915 90.8543 56.3396 91.054C57.2341 91.2945 58.1133 91.5451 58.9632 91.7881C60.836 92.3238 62.6058 92.8289 64.5181 93.2195C64.527 93.222 64.5639 93.2284 64.5741 93.2297L66.0958 93.4778C68.4471 93.8531 70.5349 93.4867 72.4778 92.3543L84.7162 85.2255C88.0205 83.3018 90.6351 83.046 91.541 84.5575C92.1517 85.5779 91.8858 87.2205 91.0231 87.7511ZM34.0002 89.844C34.0982 90.5133 33.6351 91.1367 32.9645 91.2347C32.2953 91.3326 31.6719 90.8682 31.5752 90.199C31.4772 89.5285 31.9403 88.9063 32.6108 88.8084C33.2801 88.7104 33.9022 89.1735 34.0002 89.844ZM52.8102 41.7884C53.2504 42.6473 53.4935 43.1206 53.552 43.4488C53.6092 43.7771 53.5431 44.3051 53.4235 45.2619C53.3904 45.5214 53.3548 45.8102 53.3153 46.1347C53.0825 48.0826 54.1385 49.9097 55.9414 50.6832C56.1462 50.771 56.3358 50.8512 56.5127 50.925L52.8853 58.7192C52.6639 59.1925 52.725 59.7485 53.0431 60.1633C53.3611 60.5781 53.8828 60.7817 54.3968 60.6913L58.3067 60.0081L60.3004 63.4395C60.5523 63.8734 61.0154 64.1368 61.5129 64.1368C61.5333 64.1368 61.5549 64.1368 61.5765 64.1355C62.0982 64.1126 62.5626 63.8009 62.7827 63.3276L66.5093 55.3247C66.9495 55.1974 67.2485 55.1275 67.4686 55.1275C67.802 55.1275 68.3096 55.284 69.2321 55.569C69.2842 55.5855 69.3377 55.602 69.3924 55.6186L72.0414 61.769C72.2475 62.2486 72.7042 62.5731 73.2246 62.6125C73.2603 62.6151 73.2946 62.6163 73.329 62.6163C73.8112 62.6163 74.2628 62.367 74.5198 61.9535L76.6128 58.5805L80.501 59.377C81.0125 59.4826 81.5392 59.2943 81.8688 58.8884C82.1983 58.4838 82.2759 57.9291 82.0698 57.4494L79.1282 50.6196C80.8496 49.8155 81.8497 48.033 81.6219 46.1347C81.5838 45.8102 81.5469 45.5214 81.5151 45.2619C81.3942 44.3038 81.328 43.7771 81.3866 43.4488C81.4438 43.1206 81.6868 42.6473 82.1271 41.7884C82.2467 41.5556 82.379 41.2973 82.5266 41.006C83.4108 39.2552 83.0444 37.1763 81.6143 35.834C81.3764 35.61 81.1626 35.4128 80.9718 35.2347C80.2644 34.5782 79.8738 34.2169 79.7071 33.928C79.5404 33.6405 79.4221 33.1214 79.2084 32.1799C79.1498 31.9254 79.0849 31.6417 79.0111 31.3236C78.5633 29.4138 76.9462 28.0575 74.9881 27.9481C74.6611 27.9303 74.371 27.9163 74.1102 27.9023C73.1457 27.8552 72.6152 27.8285 72.3022 27.714C71.9892 27.6008 71.5655 27.2789 70.7958 26.6962C70.5871 26.5384 70.3555 26.3628 70.0947 26.1669C68.5234 24.9913 66.4126 24.9913 64.8426 26.1669C64.5817 26.3628 64.3489 26.5384 64.1415 26.6962C63.3718 27.2789 62.9481 27.6008 62.6351 27.714C62.3221 27.8285 61.7903 27.8552 60.8258 27.9036C60.5663 27.9163 60.2749 27.9303 59.9492 27.9481C57.9898 28.0575 56.374 29.4138 55.9261 31.3249C55.8511 31.6429 55.7875 31.9254 55.7289 32.1811C55.5139 33.1214 55.3956 33.6405 55.2289 33.9293C55.0635 34.2169 54.6729 34.5782 53.9655 35.236C53.7734 35.4128 53.5609 35.61 53.323 35.834C51.8916 37.1775 51.5252 39.2552 52.4107 41.006C52.5583 41.2973 52.6919 41.5556 52.8102 41.7884ZM61.3755 59.7104L60.2406 57.7548C59.9454 57.2471 59.3652 56.9787 58.7863 57.0779L56.5598 57.4673L58.897 52.448C59.051 52.6706 59.2291 52.9467 59.453 53.2928C59.5942 53.5129 59.752 53.7559 59.9301 54.0294C60.6694 55.1593 61.8373 55.8527 63.1071 55.9914L61.3755 59.7104ZM76.2184 55.6389C75.6433 55.5206 75.0555 55.7738 74.7463 56.2726L73.5542 58.1938L72.5452 55.8501C73.5313 55.5702 74.4104 54.943 75.0071 54.0307C75.1865 53.7572 75.3443 53.5129 75.4855 53.2928C76.0097 52.4823 76.2986 52.0357 76.553 51.822C76.5619 51.8131 76.5734 51.8054 76.5836 51.7991L78.4335 56.0919L76.2184 55.6389ZM55.2416 37.8786C55.4757 37.6585 55.6844 37.4651 55.8727 37.2908C57.7481 35.5502 57.8931 35.2983 58.4631 32.8033C58.5204 32.5539 58.5827 32.2753 58.6565 31.9636C58.8207 31.2651 59.3894 30.7867 60.1057 30.7472C60.4251 30.7294 60.7101 30.7154 60.9658 30.7027C63.5219 30.5755 63.7954 30.4762 65.835 28.9304C66.0386 28.7764 66.2663 28.6034 66.5233 28.4113C67.0971 27.9812 67.8402 27.9812 68.4152 28.4113C68.671 28.6034 68.8987 28.7764 69.1036 28.9304C71.1431 30.4762 71.4154 30.5755 73.9715 30.7027C74.2272 30.7154 74.5122 30.7294 74.8328 30.7472C75.5492 30.7867 76.1179 31.2651 76.282 31.9636C76.3545 32.2753 76.4182 32.5539 76.4754 32.8033C77.0441 35.2983 77.1892 35.5502 79.0659 37.2908C79.2542 37.4651 79.4628 37.6585 79.6969 37.8786C80.2198 38.3697 80.3484 39.1 80.0252 39.7413C79.8801 40.0275 79.7504 40.2807 79.6333 40.5098C78.4653 42.7859 78.4157 43.0722 78.7338 45.6118C78.7656 45.8662 78.8012 46.1487 78.8394 46.4668C78.9246 47.1805 78.5531 47.8231 77.8928 48.1055C77.5989 48.2315 77.3355 48.3434 77.0988 48.4427C74.7412 49.4364 74.5186 49.6234 73.1305 51.7723C72.9918 51.9886 72.8366 52.2278 72.661 52.4963C72.2678 53.0968 71.5706 53.3513 70.8836 53.1426C70.5769 53.0498 70.3046 52.9658 70.0591 52.8907C68.8364 52.5128 68.1531 52.3245 67.4686 52.3245C66.7854 52.3245 66.1009 52.5128 64.8782 52.8907C64.6339 52.9658 64.3616 53.0498 64.055 53.1426C63.3679 53.35 62.6694 53.0968 62.2763 52.4963C62.1007 52.2278 61.9468 51.9874 61.8068 51.7723C60.4187 49.6234 60.196 49.4364 57.8384 48.4427C57.6031 48.3434 57.3397 48.2315 57.0445 48.1055C56.3854 47.8231 56.0139 47.1805 56.0992 46.468C56.1373 46.1487 56.1717 45.8662 56.2048 45.6118C56.5229 43.0722 56.472 42.7872 55.3052 40.5098C55.1882 40.282 55.0571 40.0275 54.9134 39.7413C54.5889 39.1 54.7187 38.3697 55.2416 37.8786ZM67.4686 50.3944C72.8417 50.3944 77.2121 46.024 77.2121 40.651C77.2121 35.2792 72.8417 30.9075 67.4686 30.9075C62.0969 30.9075 57.7265 35.2792 57.7265 40.651C57.7265 46.024 62.0969 50.3944 67.4686 50.3944ZM67.4686 33.7117C71.2958 33.7117 74.4092 36.8251 74.4092 40.651C74.4092 44.4781 71.2958 47.5902 67.4686 47.5902C63.6428 47.5902 60.5294 44.4781 60.5294 40.651C60.5294 36.8251 63.6428 33.7117 67.4686 33.7117ZM64.8438 44.1639L62.5562 41.8762C62.0091 41.3279 62.0091 40.4411 62.5562 39.894C63.1033 39.3469 63.9914 39.3456 64.5385 39.894L65.8821 41.2363L70.4484 37.0923C71.0222 36.5719 71.9078 36.6152 72.4282 37.189C72.9485 37.7615 72.9053 38.6484 72.3327 39.1687L66.7765 44.2097C66.5093 44.4527 66.1721 44.5736 65.835 44.5736C65.4762 44.5736 65.1174 44.4361 64.8438 44.1639ZM98.3784 39.1776C91.4634 39.1776 85.8372 44.8038 85.8372 51.7189C85.8372 58.6353 91.4634 64.2615 98.3784 64.2615C105.293 64.2615 110.92 58.6353 110.92 51.7189C110.92 44.8038 105.293 39.1776 98.3784 39.1776ZM98.3784 61.4585C93.0092 61.4585 88.6401 57.0894 88.6401 51.7189C88.6401 46.3497 93.0092 41.9806 98.3784 41.9806C103.749 41.9806 108.117 46.3497 108.117 51.7189C108.117 57.0894 103.749 61.4585 98.3784 61.4585ZM103.324 54.158C103.452 55.2153 103.166 56.1822 102.497 56.9571C101.865 57.6874 100.895 58.2116 99.7805 58.4508V58.7688C99.7805 59.5437 99.1533 60.1709 98.3784 60.1709C97.6049 60.1709 96.9776 59.5437 96.9776 58.7688V58.4266C95.2116 57.9927 93.868 56.7535 93.4444 55.0549C93.2573 54.3043 93.7141 53.5434 94.466 53.3564C95.2167 53.1694 95.9776 53.6261 96.1646 54.3768C96.4343 55.4557 97.582 55.8171 98.4904 55.7916C99.2754 55.7738 100.052 55.4977 100.376 55.1224C100.48 55.0015 100.582 54.8323 100.541 54.4964C100.502 54.1783 100.412 53.4315 98.1609 53.0625C94.4813 52.4581 93.8337 50.3626 93.7764 49.1666C93.6823 47.2276 94.9584 45.5965 96.9763 45.038V44.6702C96.9763 43.8954 97.6049 43.2682 98.3784 43.2682C99.1533 43.2682 99.7805 43.8954 99.7805 44.6702V45.0252C101.081 45.3713 102.298 46.239 102.95 47.7925C103.25 48.5063 102.914 49.3282 102.2 49.6272C101.487 49.9275 100.666 49.5916 100.366 48.8778C99.8391 47.6233 98.5324 47.5533 97.844 47.7098C97.5349 47.7798 96.5297 48.0813 96.5768 49.0305C96.5883 49.2875 96.6213 49.9682 98.6163 50.2965C101.487 50.7672 103.071 52.0675 103.324 54.158ZM36.5601 64.2615C43.4752 64.2615 49.1014 58.6353 49.1014 51.7189C49.1014 44.8038 43.4752 39.1776 36.5601 39.1776C29.6438 39.1776 24.0176 44.8038 24.0176 51.7189C24.0176 58.6353 29.6438 64.2615 36.5601 64.2615ZM36.5601 41.9806C41.9293 41.9806 46.2985 46.3497 46.2985 51.7189C46.2985 57.0894 41.9293 61.4585 36.5601 61.4585C31.1897 61.4585 26.8218 57.0894 26.8218 51.7189C26.8218 46.3497 31.1897 41.9806 36.5601 41.9806ZM31.0332 56.5537C30.8449 57.2471 31.098 57.9673 31.6795 58.3897C32.2597 58.8121 33.0231 58.8312 33.6249 58.4368L36.5601 56.5156L39.4954 58.438C39.7829 58.6263 40.1086 58.7205 40.4331 58.7192C40.7868 58.7192 41.1379 58.6098 41.4408 58.3897C42.0222 57.9673 42.2754 57.2459 42.0871 56.5537L41.1672 53.1694L43.9002 50.9721C44.46 50.5217 44.6788 49.7888 44.4562 49.1068C44.2348 48.4236 43.6279 47.9592 42.9103 47.9236L39.4076 47.7531L38.162 44.4743C37.9075 43.8038 37.279 43.3699 36.5601 43.3699C35.8413 43.3699 35.2127 43.8038 34.9583 44.4743L33.7127 47.7531L30.21 47.9236C29.4924 47.9592 28.8855 48.4236 28.6628 49.1068C28.4414 49.7901 28.659 50.5217 29.2201 50.9721L31.953 53.1694L31.0332 56.5537ZM34.5613 50.5191C35.242 50.486 35.8374 50.0522 36.0805 49.4147L36.5601 48.1526L37.0398 49.416C37.2815 50.0522 37.8783 50.486 38.5577 50.5191L39.9076 50.584L38.8554 51.4301C38.3236 51.8576 38.0958 52.5586 38.2739 53.2164L38.6289 54.5193L37.4991 53.7801C37.2128 53.593 36.8871 53.5002 36.5601 53.5002C36.2331 53.5002 35.9062 53.593 35.6212 53.7801L34.4913 54.5193L34.845 53.2152C35.0244 52.5574 34.7967 51.8576 34.2649 51.4301L33.2126 50.584L34.5613 50.5191ZM52.7568 74.1652C53.3039 74.7123 53.3039 75.6004 52.7568 76.1475C52.4832 76.421 52.1244 76.5584 51.7656 76.5584C51.4068 76.5584 51.0481 76.421 50.7745 76.1475L44.1203 69.4932C43.5732 68.9461 43.5732 68.0581 44.1203 67.511C44.6674 66.9639 45.5554 66.9639 46.1025 67.511L52.7568 74.1652ZM67.4686 65.7221C68.2435 65.7221 68.8707 66.3493 68.8707 67.1242V76.5343C68.8707 77.3091 68.2435 77.9364 67.4686 77.9364C66.6951 77.9364 66.0678 77.3078 66.0678 76.5343V67.1242C66.0678 66.3493 66.6951 65.7221 67.4686 65.7221ZM82.1818 74.1652L88.836 67.511C89.3831 66.9639 90.2712 66.9639 90.8183 67.511C91.3654 68.0581 91.3654 68.9461 90.8183 69.4932L84.164 76.1475C83.8905 76.421 83.5317 76.5584 83.1729 76.5584C82.8141 76.5584 82.4553 76.421 82.1818 76.1475C81.6347 75.6004 81.6347 74.7123 82.1818 74.1652Z" fill="white"/>
</g>
<defs>
<filter id="filter0_d_6248_2839" x="0.6" y="0.6" width="140.8" height="140.8" filterUnits="userSpaceOnUse" color-interpolation-filters="sRGB">
<feFlood flood-opacity="0" result="BackgroundImageFix"/>
<feColorMatrix in="SourceAlpha" type="matrix" values="0 0 0 0 0 0 0 0 0 0 0 0 0 0 0 0 0 0 127 0" result="hardAlpha"/>
<feOffset dx="4" dy="3"/>
<feGaussianBlur stdDeviation="5.7"/>
<feComposite in2="hardAlpha" operator="out"/>
<feColorMatrix type="matrix" values="0 0 0 0 0.128333 0 0 0 0 0.119778 0 0 0 0 0.119778 0 0 0 0.25 0"/>
<feBlend mode="normal" in2="BackgroundImageFix" result="effect1_dropShadow_6248_2839"/>
<feBlend mode="normal" in="SourceGraphic" in2="effect1_dropShadow_6248_2839" result="shape"/>
</filter>
</defs>
</svg>

<svg width="142" height="142" fill="none" xmlns="http://www.w3.org/2000/svg"><g filter="url(#a)"><circle cx="67" cy="68" r="59" fill="#152968"/></g><mask id="b" style="mask-type:luminance" maskUnits="userSpaceOnUse" x="24" y="25" width="87" height="85"><path d="M24 25h86.952v85H24V25Z" fill="#fff"/></mask><g mask="url(#b)"><path d="m83.305 82.803-12.237 7.129a6.78 6.78 0 0 1-1.11.52 5.64 5.64 0 0 0 .245-.715c.67-2.497-.81-5.103-3.367-5.933a1.547 1.547 0 0 0-.183-.046c-3.491-.63-6.95-1.879-9.728-2.884-.97-.351-1.888-.683-2.672-.936-3.25-1.055-6.16.234-8.578 1.633l-8.829 5.113-.7-1.24a3.185 3.185 0 0 0-1.933-1.507 3.18 3.18 0 0 0-2.434.297l-3.433 1.943a3.208 3.208 0 0 0-1.211 4.367L37.23 108.38a3.178 3.178 0 0 0 1.932 1.508 3.18 3.18 0 0 0 2.433-.298l3.434-1.942a3.21 3.21 0 0 0 1.21-4.367l-.887-1.566 1.691-.976 15.548 4.166c.892.239 1.78.358 2.654.358 1.768 0 3.476-.487 5.038-1.449l22.209-13.675c2.163-1.332 2.856-4.68 1.453-7.022-.678-1.132-3.45-4.501-10.64-.314Zm-39.657 22.404-3.433 1.944a.397.397 0 0 1-.304.035.401.401 0 0 1-.241-.186L29.575 89.162a.404.404 0 0 1 .152-.544l3.432-1.945a.392.392 0 0 1 .192-.05.405.405 0 0 1 .354.201L43.8 104.664a.403.403 0 0 1-.152.544Zm47.375-17.456-22.208 13.676c-1.685 1.037-3.535 1.295-5.498.77L47.21 97.88a1.4 1.4 0 0 0-1.063.14l-2.173 1.255-5.746-10.152 8.853-5.125c1.977-1.145 4.11-2.107 6.31-1.394.737.24 1.592.549 2.582.906 2.851 1.031 6.392 2.312 10.08 2.99 1.105.397 1.724 1.463 1.443 2.51-.299 1.115-1.132 1.601-2.478 1.45-1.784-.37-3.485-.854-5.284-1.368-.861-.245-1.75-.5-2.668-.745a1.402 1.402 0 0 0-.725 2.707c.894.24 1.773.491 2.623.734 1.873.536 3.643 1.04 5.555 1.431a.764.764 0 0 0 .056.01l1.522.249c2.351.375 4.439.009 6.382-1.124l12.238-7.129c3.305-1.923 5.92-2.179 6.825-.667.61 1.02.345 2.662-.518 3.193ZM34 89.844a1.226 1.226 0 1 1-2.426.355A1.226 1.226 0 0 1 34 89.844Zm18.81-48.056c.44.86.683 1.333.742 1.66.057.33-.009.857-.129 1.814l-.108.873a4.353 4.353 0 0 0 2.626 4.548c.205.088.395.168.572.242l-3.628 7.794a1.4 1.4 0 0 0 1.511 1.972l3.91-.683L60.3 63.44c.252.434.715.698 1.213.698.02 0 .042 0 .064-.002a1.398 1.398 0 0 0 1.206-.807l3.726-8.003c.44-.128.74-.198.96-.198.333 0 .84.157 1.763.442l.16.05 2.65 6.15a1.403 1.403 0 0 0 2.478.184l2.093-3.373 3.888.797a1.403 1.403 0 0 0 1.569-1.928l-2.942-6.83a4.346 4.346 0 0 0 2.494-4.484c-.038-.325-.075-.614-.107-.873-.12-.958-.187-1.485-.128-1.813.057-.328.3-.802.74-1.66l.4-.783a4.353 4.353 0 0 0-.913-5.172c-.238-.224-.451-.421-.642-.6-.708-.656-1.098-1.017-1.265-1.306-.167-.287-.285-.807-.499-1.748l-.197-.856a4.352 4.352 0 0 0-4.023-3.376l-.878-.046c-.964-.047-1.495-.074-1.808-.188-.313-.113-.737-.435-1.506-1.018l-.701-.53a4.352 4.352 0 0 0-5.252 0l-.702.53c-.77.583-1.193.905-1.506 1.018-.313.114-.845.141-1.81.19-.259.012-.55.026-.876.044a4.351 4.351 0 0 0-4.023 3.377c-.075.318-.139.6-.197.856-.215.94-.333 1.46-.5 1.748-.166.288-.556.65-1.264 1.307a76.49 76.49 0 0 0-.642.598 4.35 4.35 0 0 0-.912 5.172c.147.291.28.55.4.782Zm8.566 17.922-1.135-1.955a1.406 1.406 0 0 0-1.455-.677l-2.226.39 2.337-5.02c.154.223.332.499.556.845.141.22.299.463.477.736a4.352 4.352 0 0 0 3.177 1.962l-1.731 3.72Zm14.842-4.071a1.4 1.4 0 0 0-1.472.634l-1.192 1.92-1.009-2.343a4.359 4.359 0 0 0 2.462-1.82c.18-.273.337-.517.478-.737.525-.81.814-1.257 1.068-1.471a.17.17 0 0 1 .03-.023l1.85 4.293-2.215-.453Zm-20.976-17.76c.234-.22.442-.414.63-.588 1.876-1.74 2.021-1.993 2.591-4.488.057-.25.12-.528.194-.84a1.55 1.55 0 0 1 1.449-1.216c.32-.018.604-.032.86-.044 2.556-.127 2.83-.227 4.869-1.773.204-.154.431-.327.688-.519a1.548 1.548 0 0 1 1.892 0l.689.52c2.04 1.545 2.311 1.645 4.868 1.772.255.012.54.026.86.044.717.04 1.286.518 1.45 1.217.073.311.136.59.193.84.57 2.494.714 2.746 2.59 4.487.19.174.398.367.632.588.523.49.651 1.221.328 1.862-.145.287-.275.54-.392.769-1.168 2.276-1.217 2.562-.9 5.102.033.254.068.537.106.855a1.548 1.548 0 0 1-.946 1.639l-.794.337c-2.358.993-2.58 1.18-3.969 3.33-.138.216-.293.455-.469.723-.393.6-1.09.855-1.777.647l-.825-.252c-1.223-.378-1.906-.566-2.59-.566-.684 0-1.368.188-2.59.566l-.824.252a1.55 1.55 0 0 1-1.779-.647l-.47-.724c-1.387-2.149-1.61-2.336-3.968-3.33-.235-.099-.498-.21-.794-.337a1.547 1.547 0 0 1-.945-1.637c.038-.32.073-.602.106-.856.318-2.54.267-2.825-.9-5.102-.117-.228-.248-.482-.392-.769a1.547 1.547 0 0 1 .329-1.862Zm12.227 12.515c5.373 0 9.743-4.37 9.743-9.743 0-5.372-4.37-9.744-9.743-9.744-5.372 0-9.742 4.372-9.742 9.744 0 5.373 4.37 9.743 9.742 9.743Zm0-16.682c3.827 0 6.94 3.113 6.94 6.939 0 3.827-3.113 6.94-6.94 6.94a6.947 6.947 0 0 1-6.94-6.94 6.948 6.948 0 0 1 6.94-6.94Zm-2.625 10.452-2.288-2.288a1.402 1.402 0 0 1 1.983-1.982l1.343 1.342 4.566-4.144a1.4 1.4 0 1 1 1.885 2.077l-5.556 5.04a1.403 1.403 0 0 1-1.933-.046Zm33.534-4.986c-6.915 0-12.54 5.626-12.54 12.54 0 6.917 5.625 12.543 12.54 12.543 6.915 0 12.542-5.626 12.542-12.542 0-6.915-5.627-12.541-12.542-12.541Zm0 22.28c-5.369 0-9.738-4.369-9.738-9.74 0-5.368 4.37-9.737 9.738-9.737 5.371 0 9.739 4.369 9.739 9.738 0 5.37-4.368 9.74-9.739 9.74Zm4.946-7.3c.128 1.057-.158 2.024-.827 2.8-.632.73-1.602 1.254-2.716 1.493v.318a1.401 1.401 0 1 1-2.803 0v-.342c-1.766-.434-3.11-1.673-3.534-3.372a1.401 1.401 0 0 1 2.72-.678c.27 1.079 1.418 1.44 2.326 1.415.785-.018 1.562-.294 1.886-.67.104-.12.206-.29.165-.626-.039-.318-.129-1.065-2.38-1.434-3.68-.604-4.327-2.7-4.385-3.895-.094-1.94 1.182-3.57 3.2-4.129v-.368a1.402 1.402 0 0 1 2.805 0v.355c1.3.346 2.517 1.214 3.169 2.767a1.4 1.4 0 1 1-2.584 1.086c-.527-1.255-1.834-1.325-2.522-1.168-.31.07-1.314.371-1.267 1.32.011.258.044.938 2.04 1.267 2.87.47 4.454 1.77 4.707 3.861ZM36.56 64.261c6.915 0 12.541-5.626 12.541-12.542 0-6.915-5.626-12.541-12.54-12.541-6.917 0-12.543 5.626-12.543 12.54 0 6.917 5.626 12.543 12.542 12.543Zm0-22.28c5.37 0 9.738 4.369 9.738 9.738 0 5.37-4.369 9.74-9.738 9.74-5.37 0-9.738-4.37-9.738-9.74s4.368-9.738 9.738-9.738Zm-5.527 14.573a1.7 1.7 0 0 0 .646 1.836c.58.422 1.344.441 1.946.047l2.935-1.921 2.935 1.922a1.707 1.707 0 0 0 1.945-.048 1.701 1.701 0 0 0 .647-1.836l-.92-3.385 2.733-2.197a1.7 1.7 0 0 0 .556-1.865 1.701 1.701 0 0 0-1.546-1.183l-3.502-.17-1.246-3.28a1.7 1.7 0 0 0-1.602-1.104 1.7 1.7 0 0 0-1.602 1.104l-1.245 3.28-3.503.17c-.718.035-1.325.5-1.547 1.183a1.7 1.7 0 0 0 .557 1.865l2.733 2.197-.92 3.385Zm3.528-6.035a1.716 1.716 0 0 0 1.52-1.104l.48-1.262.479 1.263c.242.636.838 1.07 1.518 1.103l1.35.065-1.053.846a1.716 1.716 0 0 0-.581 1.786l.355 1.303-1.13-.739a1.712 1.712 0 0 0-1.878 0l-1.13.74.354-1.305a1.711 1.711 0 0 0-.58-1.785l-1.052-.846 1.348-.065Zm18.196 23.646a1.402 1.402 0 0 1-1.982 1.982l-6.655-6.654a1.402 1.402 0 0 1 1.983-1.982l6.654 6.654Zm14.712-8.443c.775 0 1.402.627 1.402 1.402v9.41a1.401 1.401 0 1 1-2.803 0v-9.41c0-.775.627-1.402 1.4-1.402Zm14.713 8.443 6.654-6.654a1.402 1.402 0 0 1 1.982 1.982l-6.654 6.654a1.398 1.398 0 0 1-1.982 0 1.402 1.402 0 0 1 0-1.982Z" fill="#fff"/></g><defs><filter id="a" x=".6" y=".6" width="140.8" height="140.8" filterUnits="userSpaceOnUse" color-interpolation-filters="sRGB"><feFlood flood-opacity="0" result="BackgroundImageFix"/><feColorMatrix in="SourceAlpha" values="0 0 0 0 0 0 0 0 0 0 0 0 0 0 0 0 0 0 127 0" result="hardAlpha"/><feOffset dx="4" dy="3"/><feGaussianBlur stdDeviation="5.7"/><feComposite in2="hardAlpha" operator="out"/><feColorMatrix values="0 0 0 0 0.128333 0 0 0 0 0.119778 0 0 0 0 0.119778 0 0 0 0.25 0"/><feBlend in2="BackgroundImageFix" result="effect1_dropShadow_6248_2839"/><feBlend in="SourceGraphic" in2="effect1_dropShadow_6248_2839" result="shape"/></filter></defs></svg>
